design/assets/logos/enterprise-bug.svg

<?xml version="1.0" encoding="UTF-8"?>
<svg width="32px" height="32px" viewBox="0 0 32 32" version="1.1" xmlns="http://www.w3.org/2000/svg" xmlns:xlink="http://www.w3.org/1999/xlink">
    <!-- Generator: Sketch 52.6 (67491) - http://www.bohemiancoding.com/sketch -->
    <title>Artboard</title>
    <desc>Created with Sketch.</desc>
    <g id="Artboard" stroke="none" stroke-width="1" fill="none" fill-rule="evenodd">
        <path d="M11.0125396,5.7835348 L11.0125396,2.95 L20.9860876,2.95 L20.9860876,5.7835348 L11.0125396,5.7835348 Z M20.9859785,14.1785861 L26.4985181,24.7840709 L26.3578049,25.3145633 C25.7767721,27.5077985 23.7860621,29.0396453 21.5168345,29.0396453 L10.4812109,29.0396453 C8.21234692,29.0396453 6.22163692,27.5077985 5.64024052,25.3145633 L5.49989092,24.7840709 L11.0124305,14.1785861 L11.0124305,8.61696052 L13.8459653,8.61696052 L13.8459653,14.8708805 L8.55776692,25.0454993 C8.92791172,25.7468837 9.66274732,26.2061105 10.4812109,26.2061105 L21.5168345,26.2061105 C22.3352981,26.2061105 23.0701337,25.7468837 23.4402785,25.0454993 L18.1524437,14.8708805 L18.1524437,8.61696052 L20.9859785,8.61696052 L20.9859785,14.1785861 Z M15.9990591,23.1883032 L13.9916235,21.1808676 L15.9990591,19.1737956 L18.0064947,21.1808676 L15.9990591,23.1883032 Z" id="bug" fill="#FFAE1A"></path>
    </g>
</svg>

<svg width="32" height="32" xmlns="http://www.w3.org/2000/svg"><path d="M11.013 5.784V2.95h9.973v2.834h-9.973zm9.973 8.395l5.513 10.605-.141.53a5.013 5.013 0 0 1-4.841 3.726H10.48a5.013 5.013 0 0 1-4.84-3.725l-.141-.53 5.512-10.606V8.617h2.834v6.254L8.558 25.045a2.177 2.177 0 0 0 1.923 1.161h11.036c.818 0 1.553-.46 1.923-1.16L18.152 14.87V8.617h2.834v5.562zm-4.987 9.01l-2.007-2.008 2.007-2.007 2.007 2.007L16 23.188z" fill="#FFAE1A" fill-rule="evenodd"/></svg>
